images/social-tw.svg

<svg width="16" height="16" viewBox="0 0 16 16" fill="none" xmlns="http://www.w3.org/2000/svg">
<path d="M15.5185 2.50029C15.269 2.61093 15.0126 2.7043 14.7505 2.78011C15.0608 2.42925 15.2973 2.01641 15.4417 1.56465C15.474 1.46339 15.4405 1.35255 15.3573 1.28632C15.2741 1.22004 15.1586 1.2121 15.0671 1.26635C14.5106 1.59641 13.9102 1.83361 13.2806 1.97231C12.6465 1.35265 11.7852 1 10.8948 1C9.01523 1 7.4861 2.52908 7.4861 4.40855C7.4861 4.55658 7.49548 4.70379 7.51402 4.84894C5.1817 4.64416 3.0134 3.49781 1.52443 1.67134C1.47136 1.60624 1.38962 1.57116 1.30592 1.57787C1.22218 1.58442 1.14693 1.63165 1.10463 1.70423C0.802632 2.22242 0.642978 2.81509 0.642978 3.41811C0.642978 4.23942 0.936214 5.01869 1.4542 5.62759C1.2967 5.57304 1.14386 5.50487 0.997986 5.42389C0.91967 5.3803 0.824093 5.38097 0.74629 5.42558C0.668435 5.47019 0.619622 5.55225 0.617573 5.64193C0.617215 5.65704 0.617215 5.67215 0.617215 5.68747C0.617215 6.91343 1.27703 8.01717 2.28582 8.61875C2.19915 8.6101 2.11254 8.59755 2.02649 8.5811C1.93777 8.56415 1.84655 8.59524 1.78673 8.6629C1.7268 8.73051 1.70698 8.82476 1.73458 8.91081C2.10798 10.0766 3.06933 10.9341 4.23152 11.1955C3.26761 11.7992 2.16529 12.1155 1.00813 12.1155C0.766675 12.1155 0.52384 12.1013 0.286178 12.0731C0.168116 12.0591 0.0552263 12.1288 0.0150184 12.2411C-0.0251895 12.3534 0.0174257 12.4787 0.117869 12.543C1.60443 13.4962 3.32333 14 5.08864 14C8.55901 14 10.73 12.3635 11.9401 10.9907C13.449 9.27883 14.3144 7.013 14.3144 4.77421C14.3144 4.68068 14.313 4.58624 14.3101 4.49209C14.9055 4.04356 15.418 3.50072 15.8351 2.87681C15.8985 2.78205 15.8916 2.65682 15.8182 2.56959C15.7449 2.48231 15.6227 2.45409 15.5185 2.50029Z" fill="white"/>
</svg>

<svg xmlns="http://www.w3.org/2000/svg" width="16" height="16" fill="none"><path fill="#fff" d="M15.52 2.5c-.25.11-.5.2-.77.28.31-.35.55-.76.7-1.22a.26.26 0 0 0-.38-.3c-.56.34-1.16.57-1.79.71a3.41 3.41 0 0 0-5.77 2.88 8.73 8.73 0 0 1-5.99-3.18.26.26 0 0 0-.42.03 3.4 3.4 0 0 0 .35 3.93 2.89 2.89 0 0 1-.45-.2.26.26 0 0 0-.38.21v.05c0 1.22.66 2.33 1.67 2.93l-.26-.04a.26.26 0 0 0-.3.33 3.4 3.4 0 0 0 2.5 2.29 6.03 6.03 0 0 1-3.94.87.26.26 0 0 0-.17.47A9.2 9.2 0 0 0 5.09 14a8.84 8.84 0 0 0 6.85-3 9.54 9.54 0 0 0 2.37-6.5c.6-.46 1.1-1 1.53-1.62a.26.26 0 0 0-.32-.38Z"/></svg>
